<?xml version="1.0" encoding="UTF-8"?>
<map version="1.10" tiledversion="1.11.2" orientation="orthogonal" renderorder="right-down" width="90" height="40" tilewidth="32" tileheight="32" infinite="0" nextlayerid="2" nextobjectid="1">
 <tileset firstgid="1" source="./Modern_Exteriors_Complete_Tileset_32x32.tsx"/>
 <layer id="1" name="Tile Layer 1" width="90" height="40">
  <data encoding="csv">
888,889,890,184,185,186,187,188,360,360,1414,184,360,360,536,536,184,1414,186,187,188,364,540,716,716,184,360,184,184,360,536,536,712,712,888,888,888,888,184,1414,186,187,188,716,891,184,185,186,184,360,360,1414,184,185,186,1414,184,185,186,187,188,360,712,184,185,186,187,188,184,185,1414,187,188,364,184,185,186,1414,1414,188,184,185,186,187,188,185,186,187,188,364,
889,890,184,185,186,187,188,364,184,184,1415,360,536,536,712,184,185,1414,187,188,364,540,716,892,892,360,536,184,360,536,712,712,888,888,889,890,891,892,184,1414,186,187,188,184,184,185,186,184,360,536,536,1414,184,185,184,1414,184,185,186,187,188,536,888,184,185,186,187,184,184,185,1590,187,188,540,360,361,362,1414,1414,364,184,185,186,187,188,187,188,188,364,540,
889,890,184,185,186,187,188,184,360,360,1414,536,712,712,888,184,185,1414,187,188,540,716,892,892,184,536,184,184,536,712,888,888,889,890,891,892,188,540,184,1590,186,187,188,184,185,186,184,360,536,712,712,1414,184,184,360,1414,184,185,186,187,188,712,888,1590,1414,1590,1590,1590,1414,1414,1414,188,364,184,536,537,538,1414,1414,540,184,185,186,187,188,188,364,364,540,716,
890,891,184,185,186,187,184,360,536,536,1414,712,888,888,184,185,186,1414,188,364,716,892,716,184,360,712,184,360,712,888,889,890,891,892,187,188,364,716,184,1414,186,187,188,185,184,184,1414,1414,712,888,888,1414,184,360,536,1414,184,185,186,187,188,888,184,1414,186,187,184,184,185,186,187,188,184,360,712,713,714,1414,1414,716,184,185,186,187,188,364,540,540,716,892,
890,891,184,185,186,184,360,536,712,712,1414,888,889,184,185,186,187,1414,364,540,892,716,184,360,536,184,360,536,888,889,890,891,892,186,187,188,540,892,184,1414,186,187,184,184,360,1414,1414,1590,1414,889,890,1414,360,536,712,1414,184,185,186,187,188,888,184,1414,186,184,184,185,186,187,188,364,360,536,888,889,890,1414,1414,892,184,185,186,187,188,540,716,716,892,188,
890,891,184,185,184,360,536,712,888,888,1415,1414,1414,1414,1414,1415,1414,1415,1414,1414,1414,1414,1414,1414,1414,1414,1590,1590,1590,1590,1590,1414,1414,1414,1414,1415,1414,1590,1414,1414,1414,1414,1414,1414,1414,1414,1590,1414,1590,1414,1414,1414,536,712,888,1414,184,185,186,187,184,888,184,1590,186,360,184,185,186,187,188,540,536,712,888,888,889,1414,1414,892,184,185,186,187,188,716,892,892,187,184,
890,184,185,184,360,536,712,888,889,890,1590,892,184,185,186,187,188,364,716,184,184,184,536,712,360,536,712,888,889,890,891,892,186,187,188,1590,892,184,184,185,184,360,536,536,712,1414,1590,1414,1414,184,360,1414,712,888,889,1414,184,185,186,184,184,185,186,1590,184,184,185,186,187,188,364,184,712,888,888,889,890,1414,1414,892,184,185,186,187,188,892,185,186,184,360,
891,184,184,360,536,712,888,889,890,891,1590,184,185,186,187,188,364,184,184,360,184,360,712,184,536,712,888,889,890,891,892,186,187,188,364,1414,360,360,184,184,184,184,184,184,185,186,1414,1414,184,360,536,1414,888,889,890,1414,184,184,184,184,184,185,186,1414,360,184,185,186,187,188,540,360,888,888,889,890,891,1414,1414,540,184,185,186,187,188,185,186,184,360,536,
184,185,360,536,712,888,889,890,891,892,1590,184,185,186,187,188,184,360,184,184,360,536,184,360,712,888,889,890,891,892,185,186,187,188,540,1590,536,184,184,184,360,360,360,184,185,186,187,188,360,536,712,1414,889,890,891,1414,360,360,360,360,360,361,362,1414,184,185,186,187,188,364,184,536,888,889,890,891,892,1415,1414,716,184,185,186,187,188,185,184,360,536,712,
184,184,536,712,888,889,890,891,892,716,1590,185,186,187,184,184,184,184,360,184,536,712,360,536,888,889,890,891,892,185,186,187,188,364,716,1414,184,360,360,360,536,536,536,184,185,186,187,188,536,712,888,1414,1414,1414,1414,1414,2422,2422,2422,2422,2422,2422,2423,1414,1414,1414,1414,1414,1414,1414,1414,1414,1590,1414,1414,1414,1414,1414,1414,188,184,185,186,187,188,184,360,536,712,888,
185,360,712,888,889,890,891,892,892,892,1590,185,186,184,360,184,360,360,184,360,712,184,536,712,888,889,890,891,892,186,187,188,364,184,184,1414,1590,1414,1414,1414,1414,1414,1414,1590,1414,1414,1414,1414,1414,1414,1414,1414,1414,1414,1414,1414,2421,2422,2423,2421,2422,2423,2424,1414,185,186,187,188,364,360,536,888,889,888,889,890,891,1414,1414,364,188,188,188,188,188,360,536,712,888,888,
184,536,888,889,890,891,892,892,364,184,1414,186,184,184,184,360,536,184,360,536,888,360,712,888,889,890,891,892,185,186,187,188,184,360,360,1414,536,712,712,712,888,888,888,536,184,185,186,187,188,889,187,187,187,187,188,891,892,186,187,188,889,184,536,1414,185,186,187,188,540,536,712,888,889,888,889,890,891,1414,1415,540,364,364,364,364,364,536,712,888,889,890,
360,712,888,889,890,891,892,364,184,185,1414,184,184,360,360,536,184,360,536,712,184,536,888,889,890,891,892,892,186,187,188,364,360,536,536,1414,712,888,888,888,889,890,891,712,184,185,186,187,188,890,187,187,187,187,188,892,186,186,187,188,184,360,184,1414,186,187,188,364,184,712,888,889,890,891,888,889,890,1414,1414,716,540,540,540,540,540,712,888,889,890,891,
536,888,889,890,891,892,364,540,184,185,1415,1414,1414,1414,1414,1414,1590,1590,1414,1414,1414,1414,1414,1414,1414,1414,1414,1414,1414,1590,1590,1414,1414,1414,1414,1590,1414,1414,1590,1590,1414,540,892,888,184,185,186,187,188,891,892,186,187,184,184,184,185,186,187,188,184,536,184,1414,186,187,188,540,360,888,889,890,891,892,892,888,889,1414,1414,892,716,716,716,716,716,888,889,890,891,892,
712,888,889,890,891,892,540,184,184,184,1414,360,536,712,184,360,360,712,888,184,536,888,889,890,891,892,892,187,188,364,184,360,712,888,888,889,890,1414,1590,1590,1414,716,187,360,184,185,186,187,188,892,186,187,188,184,360,184,185,186,187,184,360,184,185,1414,187,188,364,184,536,888,889,890,891,892,184,888,889,1414,1414,892,1414,1414,1590,1414,1414,1590,1590,1590,1414,1414,
888,889,890,891,892,716,716,184,360,360,1414,536,712,184,360,184,536,888,889,360,712,888,889,890,891,892,187,188,364,184,360,536,888,889,890,891,892,1414,1590,1414,1414,892,184,536,360,184,185,186,187,188,186,187,184,185,536,184,185,186,187,360,536,184,185,1414,1414,1414,1414,1414,1414,1414,1415,1414,1414,1414,1414,1414,1414,1415,1414,1414,1414,1414,1414,1414,1590,1590,1414,1414,1414,1414,
889,890,891,892,716,892,184,360,536,536,1414,712,184,360,536,360,712,888,889,536,888,889,890,891,892,892,188,364,184,360,536,712,888,889,890,891,892,892,188,364,1414,184,360,712,536,184,185,186,187,188,186,187,184,185,712,184,185,186,184,536,184,185,186,1414,1414,1415,1414,1414,1414,1414,1414,1414,1414,1590,1590,1590,1590,1590,1414,1414,712,888,889,890,891,892,187,188,540,188,
716,716,716,892,184,184,360,536,712,712,1414,184,360,536,712,536,888,889,890,712,888,889,890,891,892,188,364,184,360,536,712,888,889,890,891,892,892,187,188,540,1414,360,536,888,712,184,185,186,187,188,187,184,185,186,888,184,185,184,360,712,184,185,186,1414,1414,1414,536,712,888,889,890,184,360,536,184,360,360,536,712,712,888,889,890,891,892,892,186,187,188,184,
892,892,892,184,360,360,536,712,888,888,1414,360,536,712,184,712,888,889,890,888,889,890,891,892,188,364,540,360,536,712,888,889,890,891,892,892,187,188,364,716,1414,536,712,888,888,184,185,186,187,188,184,185,186,187,888,184,184,360,536,184,185,186,187,1414,1414,1414,712,888,889,890,184,360,536,184,360,536,536,712,888,888,889,890,891,892,892,185,186,187,188,360,
1414,1414,1415,1590,1590,1590,1414,1414,1414,1414,1414,1415,1415,1414,1590,1590,1590,1590,1590,1414,1414,1414,1414,1590,1414,1414,1590,1414,1414,1414,1590,1414,1590,1414,1414,1414,1414,1414,1414,1414,1590,1590,1414,1414,1414,1414,1414,1414,1415,1414,1414,1414,1414,1415,1414,1414,1414,1414,1415,1414,1414,1414,1414,1414,1414,1414,888,889,890,184,360,536,184,360,536,712,712,888,889,890,891,892,716,892,892,185,186,187,188,536,
1414,1590,1590,1414,1414,1414,1414,1414,1414,1414,1414,1414,1414,1414,1414,1414,1414,1590,1414,1414,1414,1414,1414,1414,1414,1414,1414,1590,1414,1590,1414,1414,1414,1414,1414,1414,1414,1414,1414,1414,1414,1414,1414,1414,1414,1414,1414,1590,1414,1414,1414,1414,1590,1414,1414,1414,1414,1590,1414,1590,1414,1414,1414,1414,1414,1414,888,889,184,360,536,184,360,536,712,888,888,889,890,891,892,892,892,892,184,185,186,187,188,712,
360,184,536,712,888,888,889,890,891,184,536,537,537,537,712,888,889,890,891,892,187,188,364,540,1414,360,536,888,889,890,891,892,891,892,186,187,188,540,184,536,712,888,889,890,891,184,185,186,187,188,185,1414,1414,184,184,360,712,888,184,185,186,187,188,184,536,888,889,184,360,184,184,360,536,712,888,889,890,891,892,540,892,891,892,889,184,185,186,187,188,888,
184,360,712,888,889,890,891,892,32766,32767,32768,32769,32770,32771,32772,32773,32774,32775,32776,32777,188,364,540,716,1414,536,712,888,889,890,891,892,892,186,187,188,364,716,360,712,888,889,890,891,184,185,186,187,188,364,186,1590,1590,360,184,536,888,184,185,186,187,188,184,360,712,888,889,360,184,360,360,536,712,888,889,890,891,892,540,716,891,892,888,889,184,185,186,187,188,888,
360,536,888,889,890,891,892,890,32942,32943,32944,32945,32946,32947,32948,32949,32950,32951,32952,32953,364,540,716,892,1590,712,888,889,890,891,892,892,185,186,187,188,540,184,536,888,889,890,891,892,184,185,186,187,188,540,187,1590,1415,536,360,712,184,185,186,187,188,184,360,536,888,889,184,184,360,536,536,712,888,889,890,891,892,540,716,892,892,540,888,889,184,185,186,187,188,889,
536,712,888,889,890,891,892,890,33118,33119,33120,33121,33122,33123,33124,33125,33126,33127,33128,33129,540,716,892,184,1590,888,889,890,891,892,892,185,186,187,188,364,716,360,712,888,889,890,891,892,184,185,186,187,188,716,187,1590,1414,184,536,888,184,185,186,184,184,360,536,712,888,184,360,360,536,712,712,888,889,890,891,892,540,716,892,891,892,716,888,889,184,185,186,187,188,184,
712,888,889,890,891,892,890,184,33294,33295,33296,33297,33298,33299,33300,33301,33302,33303,33304,33305,716,892,184,184,1590,888,889,890,891,892,185,186,187,188,364,540,184,536,888,889,890,891,892,184,184,185,186,187,188,892,188,1590,1414,360,712,184,185,184,184,360,184,536,712,888,184,360,536,536,712,888,888,889,890,891,892,540,716,892,891,892,892,892,888,889,184,185,186,187,188,184,
888,889,890,891,892,889,890,360,33470,33471,33472,33473,33474,33475,33476,33477,33478,33479,33480,33481,892,187,360,360,1415,889,890,891,892,185,186,187,188,364,540,716,360,712,888,889,890,891,892,185,184,185,186,187,188,188,364,1590,1414,536,184,184,184,360,360,184,360,712,888,184,360,536,712,712,888,889,890,891,892,364,540,716,892,890,891,892,892,892,889,890,184,185,186,187,188,184,
889,890,891,892,889,890,891,536,33646,33647,33648,33649,33650,33651,33652,33653,33654,33655,33656,33657,187,184,536,536,1414,889,890,891,892,186,187,188,364,540,716,184,536,888,889,890,891,892,185,184,185,186,187,188,364,364,540,1590,1414,184,184,360,360,536,184,360,536,888,184,360,536,712,888,888,889,890,891,892,540,540,716,892,889,890,891,892,892,888,889,890,184,185,186,187,188,185,
889,890,891,892,889,890,184,712,33822,33823,33824,33825,33826,33827,33828,33829,33830,33831,33832,33833,188,360,712,712,1414,889,890,891,184,185,186,187,188,188,188,188,188,888,889,890,891,892,186,184,185,186,184,184,185,186,187,1590,1414,184,360,536,536,712,360,536,712,184,360,536,712,888,889,890,891,892,540,540,716,716,892,889,890,891,892,892,892,888,889,890,184,185,186,187,188,185,
890,891,892,888,889,890,360,888,33998,33999,34000,34001,34002,34003,34004,34005,34006,34007,34008,34009,184,536,888,888,1414,1414,1414,1414,1414,1414,1414,1414,1414,1414,1414,1414,1414,1414,1414,1414,1414,1414,1414,1414,1414,1414,1414,1414,1414,1590,1414,1590,1414,360,536,712,712,184,536,184,184,360,536,712,888,889,890,891,892,540,716,716,892,892,888,889,890,891,892,891,892,888,889,890,184,185,186,187,188,185,
890,891,892,188,890,184,536,888,34174,34175,34176,34177,34178,34179,34180,34181,34182,34183,34184,34185,360,712,888,888,1414,890,891,892,360,184,185,186,187,188,540,540,540,364,188,1414,187,188,184,185,186,187,536,360,360,361,184,1590,1414,536,712,888,888,360,184,360,360,536,712,888,889,890,891,892,540,716,892,892,536,888,889,890,891,892,890,891,892,889,890,891,184,185,186,187,188,186,
890,891,892,364,188,184,712,888,34350,34351,34352,34353,34354,34355,34356,34357,34358,34359,34360,34361,536,888,889,888,1590,890,891,892,536,184,185,186,187,188,716,716,716,540,364,1414,187,188,185,186,187,188,712,536,536,184,360,1414,1414,712,888,889,184,184,360,536,536,712,888,889,890,891,892,716,716,892,186,360,712,888,889,890,891,892,890,891,892,889,890,891,184,185,186,187,188,186,
890,891,892,540,364,360,888,889,34526,34527,34528,34529,34530,34531,34532,34533,34534,34535,34536,34537,712,888,889,888,1590,890,891,892,712,360,184,185,186,187,188,892,892,716,540,1414,188,187,188,187,188,364,888,712,184,360,536,1414,1590,888,889,890,360,360,536,712,712,888,889,890,891,892,716,892,892,187,184,536,888,889,890,891,892,889,890,891,892,188,890,891,184,185,186,187,188,186,
890,891,892,716,540,536,888,889,34702,34703,34704,34705,34706,34707,34708,34709,34710,34711,34712,34713,888,889,890,888,1590,890,891,892,888,536,184,185,186,187,188,891,892,892,716,1414,364,188,187,188,364,540,888,184,360,536,712,1414,1590,890,891,184,536,536,712,888,888,889,890,891,892,892,892,186,187,188,360,712,888,889,890,891,892,889,890,891,892,364,890,891,184,185,186,187,188,186,
889,890,891,892,716,712,888,889,34878,34879,34880,34881,34882,34883,34884,34885,34886,34887,34888,34889,888,889,890,888,1590,890,891,892,188,712,184,184,184,184,184,184,184,184,185,1414,187,188,188,188,540,716,888,360,536,712,888,1414,1590,891,892,360,712,712,888,889,890,891,892,892,892,185,186,187,188,364,536,888,889,890,891,892,888,889,890,891,892,540,890,184,185,186,187,188,364,187,
889,890,891,892,892,888,889,890,35054,35055,35056,35057,35058,35059,35060,35061,35062,35063,35064,35065,889,890,891,888,1590,890,891,892,364,888,360,360,360,360,360,360,360,360,184,1414,184,184,184,184,184,184,888,536,712,888,889,1414,1590,892,184,536,184,888,888,889,890,891,892,892,186,187,188,188,364,540,712,888,889,890,891,892,888,889,890,891,892,716,890,184,185,186,187,188,540,187,
888,889,890,891,892,888,889,890,35230,35231,35232,35233,35234,35235,35236,35237,35238,35239,35240,35241,889,890,891,888,1414,1414,1414,1414,1590,1590,1590,1590,1414,1414,1414,1414,1414,1414,1414,1414,1414,1414,1414,1414,1414,1414,1414,1414,1414,1414,1414,1414,1590,892,360,184,360,536,888,889,890,891,892,186,187,188,364,364,540,716,888,889,890,891,892,892,187,888,889,890,891,892,188,184,185,186,187,188,716,187,
888,889,890,891,892,888,889,890,35406,35407,35408,35409,35410,35411,35412,35413,35414,35415,35416,35417,889,890,891,888,889,890,891,184,360,536,712,712,712,712,712,712,712,712,536,536,536,536,536,536,536,536,360,888,889,890,891,1590,1414,892,536,360,536,712,888,889,890,891,892,188,188,364,540,540,716,892,888,889,890,891,892,187,188,888,889,890,891,892,364,184,185,186,187,188,892,187,
888,889,890,891,892,888,889,890,35582,35583,35584,35585,35586,35587,35588,35589,35590,35591,35592,35593,890,891,892,716,888,889,184,360,536,712,888,888,888,888,888,888,888,888,712,712,712,712,712,712,712,712,536,536,712,888,889,1590,1590,892,184,536,712,888,889,890,891,892,188,364,364,540,716,716,892,890,891,892,184,185,186,187,188,888,889,890,891,892,540,184,185,186,187,188,186,187,
888,889,890,891,892,888,889,890,891,892,716,716,716,892,892,888,889,712,888,889,890,891,892,892,184,184,360,536,712,888,889,890,891,892,186,187,188,188,888,888,888,888,888,888,888,888,712,712,888,888,889,1590,1590,184,360,712,888,889,890,891,892,364,364,540,540,716,892,892,890,891,892,184,185,186,187,188,364,888,889,890,891,892,716,188,185,186,187,188,186,187
</data>
 </layer>
</map>
